main/assets/img/user-icon-white.svg

<svg height="24.932048" viewBox="0 0 24.932 24.9320482" width="24.932" xmlns="http://www.w3.org/2000/svg"><g style="stroke:#fff;stroke-width:1.5;fill:none;fill-rule:evenodd;stroke-linecap:round;stroke-linejoin:round" transform="translate(.75 .75)"><path d="m11.856 12.63c-.0933005-.0117124-.1876995-.0117124-.281 0-2.0936409-.0765947-3.74016139-1.8160012-3.70185765-3.91069255.03830374-2.09469133 1.74731614-3.77273825 3.84235765-3.77273825 2.0950415 0 3.8040539 1.67804692 3.8423576 3.77273825.0383038 2.09469135-1.6082167 3.83409785-3.7018576 3.91069255z"/><path d="m19.612 20.362c-2.1539056 1.9798396-4.9744165 3.0759115-7.9 3.0700238-2.92316874.0041281-5.74087148-1.0918237-7.893-3.0700238.20723892-1.2657528.96744891-2.3734455 2.074-3.022 3.58914617-2.1324714 8.0568538-2.1324714 11.646 0 1.1061694.648773 1.8659894 1.7564314 2.073 3.022z"/><path d="m23.432 11.716c0 6.4705681-5.2454319 11.716-11.716 11.716-6.47056813 0-11.716-5.2454319-11.716-11.716 0-6.47056813 5.24543187-11.716 11.716-11.716 3.1072764 0 6.0872868 1.23436074 8.284463 3.43153695 2.1971763 2.19717621 3.431537 5.17718666 3.431537 8.28446305z"/></g></svg>

<?xml version="1.0" encoding="UTF-8"?>
<svg width="24.932px" height="24.9320482px" viewBox="0 0 24.932 24.9320482" version="1.1" xmlns="http://www.w3.org/2000/svg" xmlns:xlink="http://www.w3.org/1999/xlink">
    <title>user-icon</title>
    <g id="Page-1" stroke="none" stroke-width="1" fill="none" fill-rule="evenodd" stroke-linecap="round" stroke-linejoin="round">
        <g id="user-icon" transform="translate(0.75, 0.75)" stroke="#FFFFFF" stroke-width="1.5">
            <path d="M11.856,12.63 C11.7626995,12.6182876 11.6683005,12.6182876 11.575,12.63 C9.4813591,12.5534053 7.83483861,10.8139988 7.87314235,8.71930745 C7.91144609,6.62461612 9.62045849,4.9465692 11.7155,4.9465692 C13.8105415,4.9465692 15.5195539,6.62461612 15.5578576,8.71930745 C15.5961614,10.8139988 13.9496409,12.5534053 11.856,12.63 Z" id="Vector"></path>
            <path d="M19.612,20.362 C17.4580944,22.3418396 14.6375835,23.4379115 11.712,23.4320238 C8.78883126,23.4361519 5.97112852,22.3402001 3.819,20.362 C4.02623892,19.0962472 4.78644891,17.9885545 5.893,17.34 C9.48214617,15.2075286 13.9498538,15.2075286 17.539,17.34 C18.6451694,17.988773 19.4049894,19.0964314 19.612,20.362 Z" id="Vector-2"></path>
            <path d="M23.432,11.716 C23.432,18.1865681 18.1865681,23.432 11.716,23.432 C5.24543187,23.432 0,18.1865681 0,11.716 C0,5.24543187 5.24543187,0 11.716,0 C14.8232764,0 17.8032868,1.23436074 20.000463,3.43153695 C22.1976393,5.62871316 23.432,8.60872361 23.432,11.716 Z" id="Vector-3"></path>
        </g>
    </g>
</svg>
